Dominus_Dark_Funeral/scalable/status/non-starred.svg

<svg xmlns="http://www.w3.org/2000/svg" xmlns:xlink="http://www.w3.org/1999/xlink" width="48" height="48"><defs><linearGradient id="b"><stop offset="0" stop-color="#1a1a1a"/><stop offset="1" stop-color="#666"/></linearGradient><linearGradient id="a"><stop offset="0"/><stop offset="1" stop-opacity="0"/></linearGradient><linearGradient xlink:href="#a" id="d" gradientUnits="userSpaceOnUse" x1="-2.88" y1="15.39" x2="57.57" y2="37.67" gradientTransform="matrix(.9567 0 0 .9567 1.04 1.04)"/><linearGradient xlink:href="#b" id="c" x1="1" y1="47.06" x2=".88" y2=".66" gradientUnits="userSpaceOnUse" gradientTransform="matrix(.9567 0 0 .9567 1.04 1.04)"/></defs><ellipse cx="23.95" cy="24" rx="22.05" ry="22.09" fill="url(#c)"/><path d="M19.61 45.66a22.05 22.1 0 0 0 2.14.32 22.05 22.1 0 0 0 2.2.11 22.05 22.1 0 0 0 1.56-.05 22.05 22.1 0 0 0 2.2-.27 22.05 22.1 0 0 0 2.14-.48 22.05 22.1 0 0 0 2.1-.7 22.05 22.1 0 0 0 2-.9 22.05 22.1 0 0 0 1.92-1.1 22.05 22.1 0 0 0 1.8-1.28 22.05 22.1 0 0 0 1.65-1.46 22.05 22.1 0 0 0 1.5-1.62 22.05 22.1 0 0 0 1.33-1.76 22.05 22.1 0 0 0 1.15-1.88 22.05 22.1 0 0 0 .96-1.99 22.05 22.1 0 0 0 .76-2.07 22.05 22.1 0 0 0 .54-2.14 22.05 22.1 0 0 0 .33-2.19A22.05 22.1 0 0 0 46 24a22.05 22.1 0 0 0-.05-1.56 22.05 22.1 0 0 0-.27-2.2 22.05 22.1 0 0 0-.48-2.15 22.05 22.1 0 0 0-.7-2.1 22.05 22.1 0 0 0-.73-1.64l-7.2-7.2-12.03 9.5-10.95-7.18.9 3.95 2.96 8.43L3.86 29.9z" opacity=".54" fill="url(#d)"/><path d="M11.43 7.03l4.78 14.35-12.35 8.53 15.17-.06L24 44.77l5-14.96 15.14-.07L31.9 21.1l4.65-13.94-12.46 8.5zM15.12 12l7.26 5.12-4.54 3.14zm17.6 0l-2.6 7.83-3.86-2.73-.38-.25zm-8.6 6.13l5.34 3.71-1.97 5.94h-7.18l-1.84-5.59zm7.12 4.96l6.73 4.69h-8.3zm-14.38.26l1.48 4.43H10.7zm9.96 6.46l-2.93 8.85-2.9-8.82z" fill="#e6e6e6" fill-rule="evenodd"/></svg>

<?xml version="1.0" encoding="UTF-8" standalone="no"?>
<svg
   xmlns:dc="http://purl.org/dc/elements/1.1/"
   xmlns:cc="http://creativecommons.org/ns#"
   xmlns:rdf="http://www.w3.org/1999/02/22-rdf-syntax-ns#"
   xmlns:svg="http://www.w3.org/2000/svg"
   xmlns="http://www.w3.org/2000/svg"
   xmlns:xlink="http://www.w3.org/1999/xlink"
   xmlns:sodipodi="http://sodipodi.sourceforge.net/DTD/sodipodi-0.dtd"
   xmlns:inkscape="http://www.inkscape.org/namespaces/inkscape"
   width="48"
   height="48"
   version="1.1"
   id="svg22"
   sodipodi:docname="non-starred.svg"
   inkscape:version="0.92.4 (5da689c313, 2019-01-14)">
  <metadata
     id="metadata26">
    <rdf:RDF>
      <cc:Work
         rdf:about="">
        <dc:format>image/svg+xml</dc:format>
        <dc:type
           rdf:resource="http://purl.org/dc/dcmitype/StillImage" />
        <dc:title></dc:title>
      </cc:Work>
    </rdf:RDF>
  </metadata>
  <sodipodi:namedview
     pagecolor="#ffffff"
     bordercolor="#666666"
     borderopacity="1"
     objecttolerance="10"
     gridtolerance="10"
     guidetolerance="10"
     inkscape:pageopacity="0"
     inkscape:pageshadow="2"
     inkscape:window-width="1112"
     inkscape:window-height="480"
     id="namedview24"
     showgrid="false"
     inkscape:zoom="4.9166667"
     inkscape:cx="2.1355932"
     inkscape:cy="24"
     inkscape:window-x="0"
     inkscape:window-y="25"
     inkscape:window-maximized="0"
     inkscape:current-layer="svg22" />
  <defs
     id="defs14">
    <linearGradient
       id="b">
      <stop
         offset="0"
         stop-color="#1a1a1a"
         id="stop2" />
      <stop
         offset="1"
         stop-color="#666"
         id="stop4" />
    </linearGradient>
    <linearGradient
       id="a">
      <stop
         offset="0"
         id="stop7" />
      <stop
         offset="1"
         stop-opacity="0"
         id="stop9" />
    </linearGradient>
    <linearGradient
       xlink:href="#a"
       id="d"
       gradientUnits="userSpaceOnUse"
       x1="-2.88"
       y1="15.39"
       x2="57.57"
       y2="37.67"
       gradientTransform="matrix(0.9567,0,0,0.9567,1.04,1.04)" />
    <linearGradient
       xlink:href="#b"
       id="c"
       x1="1"
       y1="47.06"
       x2=".88"
       y2=".66"
       gradientUnits="userSpaceOnUse"
       gradientTransform="matrix(0.9567,0,0,0.9567,1.04,1.04)" />
  </defs>
  <ellipse
     cx="23.950001"
     cy="24"
     rx="22.049999"
     ry="22.09"
     id="ellipse16"
     style="fill:url(#c)" />
  <path
     d="m 19.61,45.66 a 22.05,22.1 0 0 0 2.14,0.32 22.05,22.1 0 0 0 2.2,0.11 22.05,22.1 0 0 0 1.56,-0.05 22.05,22.1 0 0 0 2.2,-0.27 22.05,22.1 0 0 0 2.14,-0.48 22.05,22.1 0 0 0 2.1,-0.7 22.05,22.1 0 0 0 2,-0.9 22.05,22.1 0 0 0 1.92,-1.1 22.05,22.1 0 0 0 1.8,-1.28 22.05,22.1 0 0 0 1.65,-1.46 22.05,22.1 0 0 0 1.5,-1.62 22.05,22.1 0 0 0 1.33,-1.76 22.05,22.1 0 0 0 1.15,-1.88 22.05,22.1 0 0 0 0.96,-1.99 22.05,22.1 0 0 0 0.76,-2.07 22.05,22.1 0 0 0 0.54,-2.14 A 22.05,22.1 0 0 0 45.89,26.2 22.05,22.1 0 0 0 46,24 22.05,22.1 0 0 0 45.95,22.44 22.05,22.1 0 0 0 45.68,20.24 22.05,22.1 0 0 0 45.2,18.09 22.05,22.1 0 0 0 44.5,15.99 22.05,22.1 0 0 0 43.77,14.35 l -7.2,-7.2 -12.03,9.5 -10.95,-7.18 0.9,3.95 2.96,8.43 -13.59,8.05 z"
     id="path18"
     style="opacity:0.54000005;fill:url(#d)"
     inkscape:connector-curvature="0" />
  <path
     d="M 11.43,7.03 16.21,21.38 3.86,29.91 19.03,29.85 24,44.77 29,29.81 44.14,29.74 31.9,21.1 36.55,7.16 24.09,15.66 Z m 3.69,4.97 7.26,5.12 -4.54,3.14 z m 17.6,0 -2.6,7.83 -3.86,-2.73 -0.38,-0.25 z m -8.6,6.13 5.34,3.71 -1.97,5.94 h -7.18 l -1.84,-5.59 z m 7.12,4.96 6.73,4.69 h -8.3 z m -14.38,0.26 1.48,4.43 H 10.7 Z m 9.96,6.46 -2.93,8.85 -2.9,-8.82 z"
     id="path20"
     inkscape:connector-curvature="0"
     style="fill:#e6e6e6;fill-rule:evenodd" />
</svg>
